**kern	**kern
*part1	*part1
*staff2	*staff1
*I"Piano	*
*clefF4	*clefG2
*k[b-e-]	*k[b-e-]
*M3/4	*M3/4
=1	=1
4BB-	2.dd
4F 4B- 4d	.
4F 4B- 4d	.
=	=
4C	2ee-
4F 4A 4e-	.
4G 4B- 4c#X	4een
=	=
4D	2.ff
4F 4A-X 4B- 4d	.
4F 4A- 4B- 4d	.
=	=
*	*^
2E-; 2G 2B- 2e-	2bb-;	2.b-
4En 4G 4B- 4c#X	4een	.
*	*v	*v
=	=
4D	(8ffL
.	8ff#X
4F 4B- 4d	8gg
.	8ffn
4F 4B- 4d	8dd
.	8ffJ)
=	=
4FF 4F	(8ee-L
.	8cc
4F 4A 4c 4e-	8a
.	8f
4F 4A 4c 4e-	8ee-
.	8ccJ)
=	=
4BB- 4B-	4b-
4r	4d 4f 4b-
4r	4d 4f 4b-
=	=
*-	*-
!!!system-decoration: {(s1,s2)}
